X:1
T:We All Take a Sup of It In Our Turn
M:6/8
L:1/8
K:D
 A| ddd dcd| e2 c A2 A| Aee e3/2 f/2 g| a2 f d2 a/2g/2| f3/2 g/2 a agf|\
 b2 g e2 g/2f/2| e3/2 f/2 g gfe| a2 f d2 A| Add cee| fdd gee| fga gfe|\
 d3 z2 A| Add cee| fdd gee| fga gfe| d6|

